X:1
T:Title
%%score { ( 1 4 ) | ( 2 3 ) }
L:1/8
M:6/8
K:Eb
V:1 treble nm="Grand Piano"
V:4 treble 
V:2 bass 
V:3 bass 
V:1
 z3 z2[Q:1/4=81] [GB] | [Ge]2 [_Ge] [=Ge]BA | G2 [DF] G2 G | FGA [DAc]2 [B,AB] | %4
[M:5/8] [Ge]-[Ge]- [Ge]3 |[M:1/8] [GB] |[M:3/4] [Ge]2 [Ae][Ge] [EB][B,FA] | %7
 [B,EG]2 [A,DF] [G,CE]2 [B,EG] | [CF][C=EG] [CFA] [B,_EG]2 [A,DF] |[M:5/8] [G,E]-[G,E]- [G,E]3 | %10
[M:1/8] [B,EG] |[M:3/4] [DF][EG] [FA][Ac] [GB][FA] | [EG]2 [FA] [GB]2 G | F2 B d2 c | %14
 B2- [EB-] [FB]3 |[M:1/8] G/A/ |[M:3/4] [GB][_G=A] [=GB] [Ge]2 [E_Ac] | [EGB]2 [DFA] [CEG]2 [CEG] | %18
 [CF][C=EG] [CFA] [B,_EG]2 [A,DF] |[M:5/8] [G,E]-[G,E]- [G,E]3 |] %20
V:2
 z3 z2 [E,B,] | [E,B,]2 [E,=A,] [E,B,][G,B,E][K:treble][_A,CF] | %2
 [B,E]2[K:bass] [B,,B,] [E,B,E]2 [E,B,E] | C-[G,C=E][F,CF] B,,2 B,, | %4
[M:5/8] [E,B,]-[E,B,]- [E,B,]3 |[M:1/8] [E,B,] |[M:3/4] [E,B,]2 [E,C][E,B,] [E,G,]D, | %7
 E,2 B,, C,2 B,, | A,,G,, F,, B,,2 B,, |[M:5/8] E,-E,- E,3 |[M:1/8] E, | %11
[M:3/4] [B,,B,]2 [B,,B,][B,,B,] [B,,B,][B,,B,] | [E,B,]2 [E,B,] [E,E]2 [E,B,E] | %13
 [F,B,D]2 [F,B,D] [F,B,F]2 [F,=A,E] | z F, G, A,3 |[M:1/8] E/F/ |[M:3/4] [E,E]2 [E,E] [E,B,]2 E, | %17
 E,B,, =B,, C,2 _B,, | A,,G,, F,, B,,2 B,, |[M:5/8] E,-E,- E,3 |] %20
V:3
 x6 | x5[K:treble] x | x2[K:bass] x4 | .A,3 z3 |[M:5/8] x5 |[M:1/8] x |[M:3/4] x6 | x6 | x6 | %9
[M:5/8] x5 |[M:1/8] x |[M:3/4] x6 | x6 | x6 | B,,6 |[M:1/8] [E,B,] |[M:3/4] x6 | x6 | x6 | %19
[M:5/8] x5 |] %20
V:4
 x6 | x6 | x6 | x6 |[M:5/8] x5 |[M:1/8] x |[M:3/4] x6 | x6 | x6 |[M:5/8] x5 |[M:1/8] x | %11
[M:3/4] x6 | x6 | x6 | .[B,D]2 z2 z2 |[M:1/8] x |[M:3/4] x6 | x6 | x6 |[M:5/8] x5 |] %20

